web/themes/custom/oh_my_pasta/images/icons/whatsapp.svg

<svg width="48" height="48" fill="none" xmlns="http://www.w3.org/2000/svg"><g clip-path="url(#clip0_3251_4375)"><rect width="48" height="48" rx="8" fill="#004A36"/><path d="M24 6C14.055 6 6 14.055 6 24c0 3.96 1.26 7.605 3.42 10.575L6.945 41.1l7.155-2.07C16.935 40.92 20.355 42 24 42c9.945 0 18-8.055 18-18S33.945 6 24 6zm9.585 25.47l-1.935 1.89c-2.025 2.025-7.38-.18-12.105-4.95-4.725-4.725-6.84-10.08-4.95-12.06l1.935-1.935c.72-.72 1.935-.72 2.7 0l2.835 2.835c.99.99.585 2.7-.72 3.105-.9.315-1.53 1.305-1.215 2.205.495 2.115 3.24 4.725 5.265 5.22.9.225 1.935-.315 2.205-1.215.405-1.305 2.115-1.71 3.105-.72l2.835 2.835c.72.765.72 1.98.045 2.79z" fill="#fff"/></g><defs><clipPath id="clip0_3251_4375"><path fill="#fff" d="M0 0h48v48H0z"/></clipPath></defs></svg>

<svg width="48" height="48" viewBox="0 0 48 48" fill="none" xmlns="http://www.w3.org/2000/svg">
<g clip-path="url(#clip0_3251_4375)">
<rect width="48" height="48" rx="8" fill="#004A36"/>
<path d="M24 6C14.055 6 6 14.055 6 24C6 27.96 7.26 31.605 9.42 34.575L6.945 41.1L14.1 39.03C16.935 40.92 20.355 42 24 42C33.945 42 42 33.945 42 24C42 14.055 33.945 6 24 6ZM33.585 31.47L31.65 33.36C29.625 35.385 24.27 33.18 19.545 28.41C14.82 23.685 12.705 18.33 14.595 16.35L16.53 14.415C17.25 13.695 18.465 13.695 19.23 14.415L22.065 17.25C23.055 18.24 22.65 19.95 21.345 20.355C20.445 20.67 19.815 21.66 20.13 22.56C20.625 24.675 23.37 27.285 25.395 27.78C26.295 28.005 27.33 27.465 27.6 26.565C28.005 25.26 29.715 24.855 30.705 25.845L33.54 28.68C34.26 29.445 34.26 30.66 33.585 31.47Z" fill="white"/>
</g>
<defs>
<clipPath id="clip0_3251_4375">
<rect width="48" height="48" fill="white"/>
</clipPath>
</defs>
</svg>
